icons/mini/currency-rupee.svg

<svg width="20" height="20" viewBox="0 0 20 20" fill="none" xmlns="http://www.w3.org/2000/svg">
<path fill-rule="evenodd" clip-rule="evenodd" d="M10 18C14.4183 18 18 14.4183 18 10C18 5.58172 14.4183 2 10 2C5.58172 2 2 5.58172 2 10C2 14.4183 5.58172 18 10 18ZM6.00002 5.75C6.00002 5.33579 6.33581 5 6.75002 5H13.25C13.6642 5 14 5.33579 14 5.75C14 6.16421 13.6642 6.5 13.25 6.5H11.1227C11.5229 6.99922 11.8059 7.59647 11.9298 8.25H13.25C13.6642 8.25 14 8.58579 14 9C14 9.41421 13.6642 9.75 13.25 9.75H11.9298C11.6108 11.4316 10.2393 12.7405 8.52636 12.9657L10.2804 14.7197C10.5732 15.0126 10.5732 15.4874 10.2804 15.7803C9.98746 16.0732 9.51259 16.0732 9.21969 15.7803L6.21969 12.7803C6.00519 12.5658 5.94103 12.2432 6.05711 11.963C6.1732 11.6827 6.44668 11.5 6.75002 11.5H8.00002C9.11943 11.5 10.067 10.7643 10.3856 9.75H6.75C6.33579 9.75 6 9.41421 6 9C6 8.58579 6.33579 8.25 6.75 8.25H10.3856C10.067 7.23572 9.11943 6.5 8.00002 6.5H6.75002C6.33581 6.5 6.00002 6.16421 6.00002 5.75Z" fill="#0F172A"/>
</svg>

<svg xmlns="http://www.w3.org/2000/svg" viewBox="0 0 20 20" fill="currentColor" aria-hidden="true" data-slot="icon">
  <path fill-rule="evenodd" d="M10 18a8 8 0 1 0 0-16 8 8 0 0 0 0 16ZM6 5.75A.75.75 0 0 1 6.75 5h6.5a.75.75 0 0 1 0 1.5h-2.127c.4.5.683 1.096.807 1.75h1.32a.75.75 0 0 1 0 1.5h-1.32a4.003 4.003 0 0 1-3.404 3.216l1.754 1.754a.75.75 0 0 1-1.06 1.06l-3-3a.75.75 0 0 1 .53-1.28H8c1.12 0 2.067-.736 2.386-1.75H6.75a.75.75 0 0 1 0-1.5h3.636A2.501 2.501 0 0 0 8 6.5H6.75A.75.75 0 0 1 6 5.75Z" clip-rule="evenodd"/>
</svg>
